X: 88
T: Glen Allen
B: begged borrowed and stolen
M:4/4
L:1/8
R: reel
Q: 1/4=100
K:Gmaj
V:1 
DE|:"G"G2DG "Em"EGDE|"G"G2BG "C"AGEG|"Am"A2EA "D"FA"A"EA|ABcd "C"edBA|
"G"G2DG EGDE|G2BG "D"AGEG|"C"cBcd "Em"efge|1"D"dBAB "G"G2 DE:|2"D"dBAB "G"G2 Bd||
|:"G"g2dg "C"egde|"G"g2bg "C"ageg|"Am"a2ea "D"fa"C"eg|"Am"a2bg agef|
"G"g2dg "C"eg"G"de|g2bg "Am"aged|"C"cBcd efge|1"G"dB"D"AB "G"G2Bd:|2"G"dB"D"AB "G"G4||
% abcbook-tune_id 627e2b1f7a30f5744717c36a


% abcbook-boost 0
% abcbook-tablature 
% abcbook-transpose 
% abcbook-lastupdated 1652725431128
% abcbook-soundfonts 
% abcbook-repeats 3
% Rhythm Reel
% Titles One title
% Transcriptions Only 1 transcription
% Movement Has some stepwise movement
% Movement Never repeats a note
% Mode major
% Key G
% Time_signature 4/4
% Has_accompaniment_chords No chords

